**kern	**kern	**dynam
*part1	*part1	*part1
*staff2	*staff1	*
*I"Piano	*	*
*clefF4	*clefG2	*
*k[b-e-a-]	*k[b-e-a-]	*
=1	=1	=1
8r	8r	.
8r	8r	.
8AA- 8E- 8A-	8c 8e- 8cc	.
=	=	=
8r	8r	.
8GGL 8G	8B-L 8e- 8b-	.
8EE-J 8E-	8B-J 8e- 8g	.
=	=	=
*	*^	*
4.AA- 4.A-	(8fL	4.c	.
.	8e-)	.	.
.	8fJ	.	.
*	*v	*v	*
=	=	=
*^	*	*
(8GL	[4.GG	4Bn 4g	.
8D	.	.	.
8GJ	.	(8d 8g 8bn	mf
=	=	=	=
8BnL	4.GG]	4d 4g 4dd	.
8G	.	.	.
[8DJ	.	8d 8g 8bn	.
=	=	=	=
8GGL]	[4.GG	4Bn 4d 4g	.
8D	.	.	.
8GJ	.	8d 8g 8bn	.
=	=	=	=
*	*	*^	*
8BnL	4.GG]	8ddL	4d 4g	.
8G	.	8bn	.	.
8cJ)	.	8ee-J	8e- 8g	.
*v	*v	*	*	*
*	*v	*v	*
=	=	=
8GG:L 8Bn:	4d) 4g 4dd	.
8D	.	.
8GJ	8Bn 8f 8g	f
=||	=||	=||
*-	*-	*-
!!!system-decoration: {(s1,s2)}
